X: 39808
T: There Cam A Young Man
R: jig
M: 6/8
K: Adorian
|:B|ABA c2e|Aed cBA|GBd gfg|edc BAG|
ABA c2e|Aed Bcd|e2A ABG|A3 A2:|
B|c2e g2a|gec gec|G2B d2e|dge dBG|
c2e g2a|gec efg|a2A ABG|A3 A2:|

